actions/16/edit-bomb.svg

<?xml version="1.0" encoding="UTF-8" standalone="no"?>
<!-- Created with Inkscape (http://www.inkscape.org/) -->

<svg
   xmlns:dc="http://purl.org/dc/elements/1.1/"
   xmlns:cc="http://creativecommons.org/ns#"
   xmlns:rdf="http://www.w3.org/1999/02/22-rdf-syntax-ns#"
   xmlns:svg="http://www.w3.org/2000/svg"
   xmlns="http://www.w3.org/2000/svg"
   xmlns:sodipodi="http://sodipodi.sourceforge.net/DTD/sodipodi-0.dtd"
   xmlns:inkscape="http://www.inkscape.org/namespaces/inkscape"
   width="16"
   height="16"
   id="svg27665"
   version="1.1"
   inkscape:version="0.48.3.1 r9886"
   sodipodi:docname="edit-bomb.svg">
  <defs
     id="defs27667" />
  <sodipodi:namedview
     id="base"
     pagecolor="#ffffff"
     bordercolor="#666666"
     borderopacity="1.0"
     inkscape:pageopacity="0.0"
     inkscape:pageshadow="2"
     inkscape:zoom="32"
     inkscape:cx="7.458589"
     inkscape:cy="8.9364102"
     inkscape:document-units="px"
     inkscape:current-layer="layer1"
     showgrid="true"
     inkscape:window-width="1920"
     inkscape:window-height="1032"
     inkscape:window-x="-7"
     inkscape:window-y="25"
     inkscape:window-maximized="1"
     inkscape:snap-bbox="true"
     inkscape:bbox-paths="true"
     inkscape:bbox-nodes="true"
     inkscape:snap-bbox-edge-midpoints="true"
     inkscape:snap-bbox-midpoints="true"
     inkscape:object-paths="true"
     inkscape:snap-intersection-paths="true"
     inkscape:object-nodes="true"
     inkscape:snap-smooth-nodes="true"
     inkscape:snap-midpoints="true"
     inkscape:snap-object-midpoints="true"
     inkscape:snap-center="true"
     inkscape:snap-global="false"
     showguides="false"
     inkscape:guide-bbox="true"
     fit-margin-top="0"
     fit-margin-left="0"
     fit-margin-right="0"
     fit-margin-bottom="0"
     inkscape:showpageshadow="false">
    <sodipodi:guide
       orientation="0,1"
       position="599.99999,299.99993"
       id="guide3572" />
    <sodipodi:guide
       orientation="1,0"
       position="294.41949,12.121716"
       id="guide3574" />
    <sodipodi:guide
       orientation="0,1"
       position="456.04389,599.99992"
       id="guide3576" />
    <sodipodi:guide
       orientation="0,1"
       position="-2.8882813e-06,-8.4406273e-05"
       id="guide3578" />
    <sodipodi:guide
       orientation="1,0"
       position="-2.8882813e-06,157.58366"
       id="guide3580" />
    <sodipodi:guide
       orientation="1,0"
       position="599.99999,121.21821"
       id="guide3582" />
    <sodipodi:guide
       orientation="0,1"
       position="599.99999,-714.34359"
       id="guide5928" />
    <sodipodi:guide
       orientation="0,1"
       position="599.99999,-414.34359"
       id="guide5930" />
    <sodipodi:guide
       orientation="0,1"
       position="599.99999,-1014.3435"
       id="guide5932" />
    <sodipodi:guide
       orientation="0,1"
       position="451.57029,524.99606"
       id="guide5294" />
    <sodipodi:guide
       orientation="0,1"
       position="451.57029,75.013516"
       id="guide5296" />
    <sodipodi:guide
       orientation="0,1"
       position="496.01499,-931.36409"
       id="guide5413" />
    <sodipodi:guide
       orientation="0,1"
       position="457.34859,-489.34389"
       id="guide5415" />
    <inkscape:grid
       type="xygrid"
       id="grid3070"
       empspacing="5"
       visible="true"
       enabled="true"
       snapvisiblegridlinesonly="true"
       originx="4.3243213e-05px"
       originy="-2.6947047e-05px" />
  </sodipodi:namedview>
  <metadata
     id="metadata27670">
    <rdf:RDF>
      <cc:Work
         rdf:about="">
        <dc:format>image/svg+xml</dc:format>
        <dc:type
           rdf:resource="http://purl.org/dc/dcmitype/StillImage" />
        <dc:title />
      </cc:Work>
    </rdf:RDF>
  </metadata>
  <g
     inkscape:label="Camada 1"
     inkscape:groupmode="layer"
     id="layer1"
     transform="translate(3364.4171,-2100.7186)">
    <path
       sodipodi:nodetypes="ccccccccccccccccc"
       inkscape:connector-curvature="0"
       id="path2997"
       d="m -3354.1923,2101.7499 -2.9446,3.5334 -2.3556,-2.5192 0.687,3.4026 -4.5804,0.3271 3.5335,2.9446 -2.5192,2.3556 3.4026,-0.687 0.3271,4.5804 2.9446,-3.5335 2.3556,2.5192 -0.687,-3.4026 4.5803,-0.3271 -3.5334,-2.9446 2.5192,-2.3556 -3.4026,0.687 z"
       style="color:#000000;fill:#27303a;fill-opacity:0.75328081999999996;fill-rule:nonzero;stroke:none;stroke-width:1.20000005;marker:none;visibility:visible;display:inline;overflow:visible;enable-background:accumulate" />
    <path
       style="font-size:medium;font-style:normal;font-variant:normal;font-weight:normal;font-stretch:normal;text-indent:0;text-align:start;text-decoration:none;line-height:normal;letter-spacing:normal;word-spacing:normal;text-transform:none;direction:ltr;block-progression:tb;writing-mode:lr-tb;text-anchor:start;baseline-shift:baseline;color:#000000;fill:#f1f3f5;fill-opacity:0.90288714000000003;fill-rule:nonzero;stroke:none;stroke-width:2;marker:none;visibility:visible;display:inline;overflow:visible;enable-background:accumulate;font-family:Sans;-inkscape-font-specification:Sans"
       d="M 11.25 -2.15625 L 9.25 0.21875 L 7.21875 2.6875 L 5.8125 1.1875 L 2.8125 -2.03125 L 3.6875 2.28125 L 4.09375 4.28125 L 0.9375 4.53125 L -2.15625 4.75 L 0.21875 6.75 L 2.65625 8.78125 L 1.1875 10.15625 L -2.03125 13.1875 L 2.28125 12.3125 L 4.28125 11.90625 L 4.53125 15.0625 L 4.75 18.15625 L 6.71875 15.78125 L 8.75 13.3125 L 10.15625 14.8125 L 13.15625 18.03125 L 12.28125 13.71875 L 11.875 11.71875 L 15.0625 11.46875 L 18.15625 11.25 L 15.75 9.25 L 13.3125 7.21875 L 14.8125 5.84375 L 18.03125 2.8125 L 13.6875 3.6875 L 11.6875 4.09375 L 11.46875 0.9375 L 11.25 -2.15625 z M 10.21875 1.03125 L 10.5625 5.625 L 13.96875 4.9375 L 11.4375 7.28125 L 14.96875 10.21875 L 10.375 10.5625 L 11.0625 13.96875 L 8.71875 11.4375 L 5.78125 14.96875 L 5.4375 10.375 L 2.03125 11.0625 L 4.5625 8.71875 L 1.03125 5.78125 L 5.625 5.4375 L 4.9375 2.03125 L 7.28125 4.5625 L 10.21875 1.03125 z "
       transform="translate(-3364.4171,2100.7186)"
       id="path2999" />
  </g>
</svg>

<?xml version="1.0" encoding="UTF-8"?>
<svg id="c" width="16" height="16" version="1.1" xmlns="http://www.w3.org/2000/svg" xmlns:cc="http://creativecommons.org/ns#" xmlns:dc="http://purl.org/dc/elements/1.1/" xmlns:rdf="http://www.w3.org/1999/02/22-rdf-syntax-ns#">
	<metadata id="a">
		<rdf:RDF>
			<cc:Work rdf:about="">
				<dc:format>image/svg+xml</dc:format>
				<dc:type rdf:resource="http://purl.org/dc/dcmitype/StillImage"/>
				<dc:title/>
			</cc:Work>
		</rdf:RDF>
	</metadata>
	<defs>
		<style id="current-color-scheme" type="text/css">.ColorScheme-Text {color:#090d11;}.ColorScheme-Background{color:#ffffff;}</style>
	</defs>
	<path id="d" d="m10.225 1.0313-2.9446 3.5334-2.3556-2.5192 0.687 3.4026-4.5804 0.3271 3.5335 2.9446-2.5192 2.3556 3.4026-0.687 0.3271 4.5804 2.9446-3.5335 2.3556 2.5192-0.687-3.4026 4.5803-0.3271-3.5334-2.9446 2.5192-2.3556-3.4026 0.687z" style="fill-opacity:.75;fill:currentColor" class="ColorScheme-Text"/>
	<path id="b" d="m11.25-2.1562-2 2.375-2.0312 2.4688-1.4062-1.5-3-3.2188 0.875 4.3125 0.40625 2-3.1562 0.25-3.0938 0.21875 2.375 2 2.4375 2.0312-1.4688 1.375-3.2188 3.0312 4.3125-0.875 2-0.40625 0.25 3.1562 0.21875 3.0938 1.9688-2.375 2.0312-2.4688 1.4062 1.5 3 3.2188-0.875-4.3125-0.40625-2 3.1875-0.25 3.0938-0.21875-2.4062-2-2.4375-2.0312 1.5-1.375 3.2188-3.0312-4.3438 0.875-2 0.40625-0.21875-3.1562zm-1.0312 3.1875 0.34375 4.5938 3.4062-0.6875-2.5312 2.3438 3.5312 2.9375-4.5938 0.34375 0.6875 3.4062-2.3438-2.5312-2.9375 3.5312-0.34375-4.5938-3.4062 0.6875 2.5312-2.3438-3.5312-2.9375 4.5938-0.34375-0.6875-3.4062 2.3438 2.5312z" style="fill-opacity:.5;fill:currentColor" class="ColorScheme-Background"/>
</svg>
